X:1
T:Title
%%score ( 1 2 ) ( 3 4 )
L:1/8
Q:1/4=110
M:3/4
K:F
V:1 treble nm="Grand Piano, Staff 1"
V:2 treble 
V:3 bass nm="Choir Pad, Leffingwell, LM"
V:4 bass 
V:1
 FE F2 E2 | D2 A2- [^CA]2 | [^CE][DF] [EG]2 [DF]2 | [^CE]2 D4 | [^CA]2 d2 A2 | AG F2 G2 | %6
w: By~Thoro~Harris~(1874\-1955) * * *||||||
 [DA]2 B2 c2 | [Dd]2 [DA]4 | [DF][EG] [FA]2 [EG]2 | [DF]2 F2 E2 | [^CE][DF] [EG]2 [CA]2 | %11
w: |||||
 [^CE]2 [DF]4 | EA [Dd]4 | [_Ec]2 c2 B2 | [FA][EG] [DF]2 [EG]2 | [^CE]2 D4- | D4 z2 |] %17
w: ||||||
V:2
 C2 A,4 | z2 D2 z2 | x6 | x6 | z2 D4 | ^C2 D4 | z2 D4 | x6 | x6 | z2 ^C4 | x6 | x6 | x6 | z2 D4 | %14
 x6 | x6 | x6 |] %17
V:3
 F,G, A,2 G,2 | [D,F,]2 [A,,E,]4 | [A,,A,]2 [A,,A,]4 | [A,,G,]2 [D,F,]4 | [E,G,]2 [D,F,]4 | %5
 [A,,E,]2 [D,F,]4 | z2 F,4 | [B,,F,]2 [D,F,]4 | A,B, A,3- [E,A,] | A,-[G,A,] A,4 | A,2 [A,,A,]4 | %11
 z2 F,2 z2 | z2 B,2 z2 | [A,,^F,]2 [G,,G,]4 | .F,2 z2 z2 | [A,,G,]2 [D,F,]4- | [D,F,]4 z2 |] %17
V:4
 D,2 D,4 | x6 | x6 | x6 | x6 | x6 | [C,F,]2 B,,2 A,,2 | x6 | D,2 D,4 | .F,2 z2 z2 | x6 | %11
 [A,,G,]2 D,2- [D,G,]2 | [C,A,]2 B,,2- [B,,F,]2 | x6 | B,,-[B,,G,] [A,,A,]4 | x6 | x6 |] %17

